build/img/pointer.svg

<svg width="24" height="24" viewBox="0 0 24 24" fill="none" xmlns="http://www.w3.org/2000/svg">
<g filter="url(#filter0_d)">
<path d="M8.26987 16.2799C7.98987 15.9199 7.63987 15.1899 7.02987 14.2799C6.67987 13.7799 5.81987 12.8299 5.55987 12.3399C5.37244 12.0422 5.31806 11.6796 5.40987 11.3399C5.56683 10.6941 6.17943 10.2657 6.83987 10.3399C7.35067 10.4425 7.8201 10.6929 8.18987 11.0599C8.44805 11.3031 8.68554 11.5673 8.89987 11.8499C9.05987 12.0499 9.09987 12.1299 9.27987 12.3599C9.45987 12.5899 9.57987 12.8199 9.48987 12.4799C9.41987 11.9799 9.29987 11.1399 9.12987 10.3899C8.99987 9.81993 8.96987 9.72993 8.84987 9.29993C8.72987 8.86993 8.65987 8.50993 8.52987 8.01993C8.41104 7.5385 8.31758 7.05116 8.24987 6.55993C8.12383 5.93163 8.21553 5.27914 8.50987 4.70993C8.85927 4.3813 9.3718 4.29456 9.80987 4.48993C10.2505 4.81526 10.579 5.26958 10.7499 5.78993C11.0119 6.43032 11.1868 7.10299 11.2699 7.78993C11.4299 8.78993 11.7399 10.2499 11.7499 10.5499C11.7499 10.1799 11.6799 9.39993 11.7499 9.04993C11.8192 8.68505 12.0728 8.38224 12.4199 8.24993C12.7177 8.15855 13.0327 8.13801 13.3399 8.18993C13.6499 8.25474 13.9245 8.43307 14.1099 8.68993C14.3416 9.27332 14.4701 9.89253 14.4899 10.5199C14.5167 9.97051 14.6107 9.42646 14.7699 8.89993C14.937 8.66448 15.181 8.49472 15.4599 8.41993C15.7905 8.35948 16.1293 8.35948 16.4599 8.41993C16.731 8.51056 16.9681 8.68144 17.1399 8.90993C17.3516 9.44027 17.4798 10.0003 17.5199 10.5699C17.5199 10.7099 17.5899 10.1799 17.8099 9.82993C17.9242 9.49053 18.2109 9.2379 18.562 9.1672C18.9131 9.09651 19.2752 9.21849 19.512 9.4872C19.7488 9.75591 19.8242 10.1305 19.7099 10.4699C19.7099 11.1199 19.7099 11.0899 19.7099 11.5299C19.7099 11.9699 19.7099 12.3599 19.7099 12.7299C19.6734 13.3151 19.5932 13.8967 19.4699 14.4699C19.2958 14.977 19.0536 15.4581 18.7499 15.8999C18.2643 16.4399 17.8631 17.0501 17.5599 17.7099C17.4846 18.0377 17.451 18.3737 17.4599 18.7099C17.4589 19.0206 17.4992 19.3299 17.5799 19.6299C17.171 19.6732 16.7587 19.6732 16.3499 19.6299C15.9599 19.5699 15.4799 18.7899 15.3499 18.5499C15.2856 18.4211 15.1539 18.3396 15.0099 18.3396C14.8658 18.3396 14.7342 18.4211 14.6699 18.5499C14.4499 18.9299 13.9599 19.6199 13.6199 19.6599C12.9499 19.7399 11.5699 19.6599 10.4799 19.6599C10.4799 19.6599 10.6599 18.6599 10.2499 18.2999C9.83987 17.9399 9.41987 17.5199 9.10987 17.2399L8.26987 16.2799Z" fill="white"/>
<path fill-rule="evenodd" clip-rule="evenodd" d="M8.26987 16.2799C7.98987 15.9199 7.63987 15.1899 7.02987 14.2799C6.67987 13.7799 5.81987 12.8299 5.55987 12.3399C5.37244 12.0422 5.31806 11.6796 5.40987 11.3399C5.56683 10.6941 6.17943 10.2657 6.83987 10.3399C7.35067 10.4425 7.8201 10.6929 8.18987 11.0599C8.44805 11.3031 8.68554 11.5673 8.89987 11.8499C9.05987 12.0499 9.09987 12.1299 9.27987 12.3599C9.45987 12.5899 9.57987 12.8199 9.48987 12.4799C9.41987 11.9799 9.29987 11.1399 9.12987 10.3899C8.99987 9.81993 8.96987 9.72993 8.84987 9.29993C8.72987 8.86993 8.65987 8.50993 8.52987 8.01993C8.41104 7.5385 8.31758 7.05116 8.24987 6.55993C8.12383 5.93163 8.21553 5.27914 8.50987 4.70993C8.85927 4.3813 9.3718 4.29456 9.80987 4.48993C10.2505 4.81526 10.579 5.26958 10.7499 5.78993C11.0119 6.43032 11.1868 7.10299 11.2699 7.78993C11.4299 8.78993 11.7399 10.2499 11.7499 10.5499C11.7499 10.1799 11.6799 9.39993 11.7499 9.04993C11.8192 8.68505 12.0728 8.38224 12.4199 8.24993C12.7177 8.15855 13.0327 8.13801 13.3399 8.18993C13.6499 8.25474 13.9245 8.43307 14.1099 8.68993C14.3416 9.27332 14.4701 9.89253 14.4899 10.5199C14.5167 9.97051 14.6107 9.42646 14.7699 8.89993C14.937 8.66448 15.181 8.49472 15.4599 8.41993C15.7905 8.35948 16.1293 8.35948 16.4599 8.41993C16.731 8.51056 16.9681 8.68144 17.1399 8.90993C17.3516 9.44027 17.4798 10.0003 17.5199 10.5699C17.5199 10.7099 17.5899 10.1799 17.8099 9.82993C17.9242 9.49053 18.2109 9.2379 18.562 9.1672C18.9131 9.09651 19.2752 9.21849 19.512 9.4872C19.7488 9.75591 19.7099 10.0036 19.7099 10.4699C19.7099 11.1199 19.7099 11.0899 19.7099 11.5299C19.7099 11.9699 19.7099 12.3599 19.7099 12.7299C19.6734 13.3151 19.5932 13.8967 19.4699 14.4699C19.2958 14.977 19.0536 15.4581 18.7499 15.8999C18.2643 16.4399 17.8631 17.0501 17.5599 17.7099C17.4846 18.0377 17.451 18.3737 17.4599 18.7099C17.4589 19.0206 17.4992 19.3299 17.5799 19.6299C17.171 19.6731 16.7587 19.6731 16.3499 19.6299C15.9599 19.5699 15.4799 18.7899 15.3499 18.5499C15.2856 18.4211 15.1539 18.3396 15.0099 18.3396C14.8658 18.3396 14.7342 18.4211 14.6699 18.5499C14.4499 18.9299 13.9599 19.6199 13.6199 19.6599C12.9499 19.7399 11.5699 19.6599 10.4799 19.6599C10.4799 19.6599 10.6599 18.6599 10.2499 18.2999C9.83987 17.9399 9.41987 17.5199 9.10987 17.2399L8.26987 16.2799Z" stroke="black" stroke-width="0.75" stroke-linecap="round" stroke-linejoin="round"/>
<path d="M16.75 16.8259V13.3741C16.75 13.1675 16.5821 13 16.375 13C16.1679 13 16 13.1675 16 13.3741V16.8259C16 17.0325 16.1679 17.2 16.375 17.2C16.5821 17.2 16.75 17.0325 16.75 16.8259Z" fill="black"/>
<path d="M14.77 16.8246L14.75 13.3711C14.7488 13.1649 14.5799 12.9988 14.3728 13C14.1657 13.0012 13.9988 13.1693 14 13.3754L14.02 16.8289C14.0212 17.035 14.1901 17.2012 14.3972 17.2C14.6043 17.1988 14.7712 17.0307 14.77 16.8246Z" fill="black"/>
<path d="M12 13.379L12.02 16.8254C12.0212 17.0335 12.1901 17.2012 12.3972 17.2C12.6043 17.1988 12.7712 17.0291 12.77 16.821L12.75 13.3746C12.7488 13.1665 12.5799 12.9988 12.3728 13C12.1657 13.0012 11.9988 13.1709 12 13.379Z" fill="black"/>
</g>
<defs>
<filter id="filter0_d" x="4.19121" y="4.01172" width="16.6978" height="17.8588" filterUnits="userSpaceOnUse" color-interpolation-filters="sRGB">
<feFlood flood-opacity="0" result="BackgroundImageFix"/>
<feColorMatrix in="SourceAlpha" type="matrix" values="0 0 0 0 0 0 0 0 0 0 0 0 0 0 0 0 0 0 127 0"/>
<feOffset dy="1"/>
<feGaussianBlur stdDeviation="0.4"/>
<feColorMatrix type="matrix" values="0 0 0 0 0 0 0 0 0 0 0 0 0 0 0 0 0 0 0.5 0"/>
<feBlend mode="normal" in2="BackgroundImageFix" result="effect1_dropShadow"/>
<feBlend mode="normal" in="SourceGraphic" in2="effect1_dropShadow" result="shape"/>
</filter>
</defs>
</svg>

<svg width="24" height="24" viewBox="0 0 24 24" fill="none" xmlns="http://www.w3.org/2000/svg"><g filter="url(#filter0_d)"><path d="M8.27 16.28c-.28-.36-.63-1.09-1.24-2-.35-.5-1.21-1.45-1.47-1.94a1.26 1.26 0 01-.15-1 1.32 1.32 0 011.43-1c.51.103.98.353 1.35.72.258.243.496.507.71.79.16.2.2.28.38.51.18.23.3.46.21.12-.07-.5-.19-1.34-.36-2.09-.13-.57-.16-.66-.28-1.09-.12-.43-.19-.79-.32-1.28a14.163 14.163 0 01-.28-1.46 2.82 2.82 0 01.26-1.85 1.19 1.19 0 011.3-.22c.44.325.769.78.94 1.3.262.64.437 1.313.52 2 .16 1 .47 2.46.48 2.76 0-.37-.07-1.15 0-1.5a1.07 1.07 0 01.67-.8 2 2 0 01.92-.06c.31.065.585.243.77.5a5.42 5.42 0 01.38 1.83 6.73 6.73 0 01.28-1.62 1.24 1.24 0 01.69-.48 2.8 2.8 0 011 0c.271.09.508.261.68.49.212.53.34 1.09.38 1.66 0 .14.07-.39.29-.74a1.002 1.002 0 111.9.64v2.26a11.753 11.753 0 01-.24 1.74 5.915 5.915 0 01-.72 1.43 7.208 7.208 0 00-1.19 1.81 3.995 3.995 0 00-.1 1c-.001.31.04.62.12.92a5.84 5.84 0 01-1.23 0c-.39-.06-.87-.84-1-1.08a.38.38 0 00-.68 0c-.22.38-.71 1.07-1.05 1.11-.67.08-2.05 0-3.14 0 0 0 .18-1-.23-1.36-.41-.36-.83-.78-1.14-1.06l-.84-.96z" fill="#fff"/><path clip-rule="evenodd" d="M8.27 16.28c-.28-.36-.63-1.09-1.24-2-.35-.5-1.21-1.45-1.47-1.94a1.26 1.26 0 01-.15-1 1.32 1.32 0 011.43-1c.51.103.98.353 1.35.72.258.243.496.507.71.79.16.2.2.28.38.51.18.23.3.46.21.12-.07-.5-.19-1.34-.36-2.09-.13-.57-.16-.66-.28-1.09-.12-.43-.19-.79-.32-1.28a14.163 14.163 0 01-.28-1.46 2.82 2.82 0 01.26-1.85 1.19 1.19 0 011.3-.22c.44.325.769.78.94 1.3.262.64.437 1.313.52 2 .16 1 .47 2.46.48 2.76 0-.37-.07-1.15 0-1.5a1.07 1.07 0 01.67-.8 2 2 0 01.92-.06c.31.065.585.243.77.5a5.42 5.42 0 01.38 1.83 6.73 6.73 0 01.28-1.62 1.24 1.24 0 01.69-.48 2.8 2.8 0 011 0c.271.09.508.261.68.49.212.53.34 1.09.38 1.66 0 .14.07-.39.29-.74a1.002 1.002 0 011.702-.343c.237.269.198.517.198.983v2.26a11.753 11.753 0 01-.24 1.74 5.915 5.915 0 01-.72 1.43 7.208 7.208 0 00-1.19 1.81 3.995 3.995 0 00-.1 1c-.001.31.04.62.12.92a5.853 5.853 0 01-1.23 0c-.39-.06-.87-.84-1-1.08a.38.38 0 00-.68 0c-.22.38-.71 1.07-1.05 1.11-.67.08-2.05 0-3.14 0 0 0 .18-1-.23-1.36-.41-.36-.83-.78-1.14-1.06l-.84-.96z" stroke="#000" stroke-width=".75" stroke-linecap="round" stroke-linejoin="round"/><path d="M16.75 16.826v-3.452a.375.375 0 00-.75 0v3.452a.375.375 0 00.75 0zm-1.98-.001l-.02-3.454a.374.374 0 00-.75.004l.02 3.454a.374.374 0 00.75-.004zM12 13.379l.02 3.446a.376.376 0 10.75-.004l-.02-3.446a.376.376 0 10-.75.004z" fill="#000"/></g><defs><filter id="filter0_d" x="4.191" y="4.012" width="16.698" height="17.859" filterUnits="userSpaceOnUse" color-interpolation-filters="sRGB"><feFlood flood-opacity="0" result="BackgroundImageFix"/><feColorMatrix in="SourceAlpha" values="0 0 0 0 0 0 0 0 0 0 0 0 0 0 0 0 0 0 127 0"/><feOffset dy="1"/><feGaussianBlur stdDeviation=".4"/><feColorMatrix values="0 0 0 0 0 0 0 0 0 0 0 0 0 0 0 0 0 0 0.5 0"/><feBlend in2="BackgroundImageFix" result="effect1_dropShadow"/><feBlend in="SourceGraphic" in2="effect1_dropShadow" result="shape"/></filter></defs></svg>
